X:1
T:Les Folies d'Espagne
T:Les Folies d'Espagne
T:Op. 15
T:Fernando Sor
C:Fernando Sor
%%score ( 1 2 3 4 )
L:1/8
Q:1/4=70
M:3/4
K:G
V:1 treble-8 nm="Classical Guitar" snm="Guit."
V:2 treble-8 
V:3 treble-8 
V:4 treble-8 
V:1
"^Thema" [Ge]2 [Be]2 [ce]2 | e2 ^d2 B2 | [Ge]2 [Be]2 [ce]2 | g2 f2 d2 | [Bg]2 [Bg]2 [ea]2 | %5
 g2 fagf | [Ge]2 [Ge]2 [Af]2 | e2 ^d2 B2 | [Ge]2 [Be]2 [ce]2 | e2 ^d2 B2 | [Ge]2 [Ge]2 [_Be]2 | %11
 g2 f2 d2 | [Bg]2 [Bg]2 [ea]2 | g2 fagf | [Be]2 [Acf]2 [FA^d]2 | [EGe]2 z2 || %16
[M:3/4][Q:1/4=70]"^Var. 1" B2 | e{/a} [eg]/[^df]/ [eg][gb]/[f^a]/ [gb][eg] | %18
 [^df][df]/[^c^e]/ [df][fa]/[^e^g]/ [fa][df] | [=e=g][eg]/[^df]/ [eg][gb]/[f^a]/ [gb][eg] | %20
 [fa][fa]/[^e^g]/ [fa][=df][=e=g][fa] | [gb][gb]/[f^a]/ [gb][bd']/[^a^c']/ [bd'][gb] | %22
 [f=a][fa]/[^e^g]/ [fa][a=c']/[^gb]/ [ac'][fa] | [e=g][eg]/[^df]/ [eg][eb][fa][eg] | %24
 [^df] z z2 z B | [Be]{/a}[eg]/[^df]/ [eg][gb]/[f^a]/ [gb][eg] | %26
 [^df][df]/[^c^e]/ [df][fa]/[^e^g]/ [fa][df] | [=e=g][eg]/[^df]/ [eg][gb]/[f^a]/ [gb][eg] | %28
 [fa][fa]/[^e^g]/ [fa][=df][=e=g][fa] | [gb][gb]/[f^a]/ [gb][bd']/[^a^c']/ [bd'][gb] | %30
 [f=a][fa]/[^e^g]/ [fa][a=c']/[^gb]/ [ac'][fa] | z [Beg] z [Acf] z [FA^d] | [Ge]2 z2 z2 || %33
[M:3/4][Q:1/4=70]"^Var. 2" B2 | e2 z2 e2 | z (e^d)c B2 | e2 z2 e2 | z gfed=c | G2 z2 g2 | %39
 z gfed^d | e4 e2 | z e^df z2 | e2 z2 e2 | z (e^d)c B2 | e2 z2 e2 | z gfe d2 | z2 g2 g2 | %47
 z gf[ca][Bg][Af] | e2 f2 ^d2 | e2 z2 ||[M:3/4][Q:1/4=70]"^Var. 3" B2 | ee/f/ gg/a/ bb | b4 ^d2 | %53
 ee/f/ gg/a/ bb | ^g2 a2 z d | =gg/a/ bb/c'/ d'd' | d'2 f3 a | (ag) (gf) fe | e2 ^d=c B2 | %59
 ee/f/ gg/a/ bb | b4 ^d2 | ee/f/ gg/a/ bb | ^g4 ad | =gg/a/ bb/c'/ d'2 | z f/g/ aa/b/ c'2 | %65
 [gb]2 [fa]2 [^df]2 | e2 z2 ||[M:3/4][Q:1/4=70]"^Var. 4" B2 | [Ge]2 z2 z2 | (3e^dB (3edB (3edB | %70
 [Ge]2 z2 z2 | (3gfc (3gfc (3gfc | [Bg]2 z2 z2 | [cf]2 z2 [fa]2 | g2 f2 e2 | e2 ^d z z2 | %76
 [Ge]2 z2 z2 | (3e^dB (3edB (3edB | [Ge]2 z2 z2 | (3gfc (3gfc (3gfc | [Bg]2 z2 z2 | %81
 [cf]2 z2 [fa]2 | g2 f2 ^d2 | e2 E,2 z2 |][K:E][M:3/4]"^Menuet"!p![Q:1/4=90]"^Andante" B2 e2 d2 | %85
 e3{fede} g B2 | d>a [Fda]2 [Eeg]2 | [eg]4 [Bdf] z |"_dolce" a2 g2 f2 | b3!p! (a/g/) (f/e/)d/e/ | %90
 (^B>c) f3 z/ d/ |!>(! [FAd]2 [EGe]2!>)! z2 ::!f! g2 b2 g2 | [df]z/b/{/bc'} (3(d'c').b (3(^ag).f | %94
 [df]2 [^^c^e]2 [^c=e]2 | [ce]4 [Bd] z |"_dolce" b2 ^a2 =a2 | [eg][gb] ([^^f^a][gb]) [eg][ce] | %98
 [Bd]4 c>d |!>(! [Ec]2 [DB]2!>)!!mf! z2 |!p! B2 e2 d2 | e3{fede} g B2 | d>a [Fda]2 [Eeg]2 | %103
 [eg]4 [Bdf] z |"_dolce" a2 g2 f2 | b3!p!{/b} a/g/ f/e/d/e/ | (^B>c) f3 z/ d/ | %107
!>(! [FAd]2 [EGe]2!>)! z2 :| %108
V:2
 E,2 G,2 A,2 | B,4 A2 | E,2 G,2 A,2 | [DA]4 c2 | G2 E2 ^C2 | D4 ^D2 | E2 C2 A,2 | [B,F]4 z2 | %8
 E,2 G,2 A,2 | B,4 A2 | E,2 E2 ^C2 | [DA]4 [Fc]2 | G2 E2 ^C2 | D4 ^D2 | E2 A,2 B,2 | E,2 x2 || %16
[M:3/4] B,2 | E, z z2 z E, | B, z z2 z B, | =E, z z2 z E | D z z c BA | G z z2 z G | D z z2 z ^D | %23
 E z z G A^A | B{/c}B/^A/ Bb B, z | E, z z2 z E, | B, z z2 z B, | =E, z z2 z E | D z z cBA | %29
 G z z2 z G | D z z2 z ^D | E z A, z B, z | z E E,2 z2 ||[M:3/4] x2 | E,4 z2 | [FA]3 E ^D2 | E,6 | %37
 D4 D2 | G,2 z2 z2 | [Ac]3 [GB] [FA]2 | z E^D=D^C=C | B,6 | E,4 z2 | [FA]3 E ^D2 | E,6 | %45
 D4 [DF] z | G,2 z2 z2 | [DAc]3 ^D EB, | C2 A,2 B,2 | z2 E,2 ||[M:3/4] x2 | E,6 | B,6 | E,6 | D6 | %55
 G z z2 z2 | D4 ^D2 | E2 A,2 ^A,2 | B,4 ^D2 | E,6 | B,6 | E,6 | D4 z2 | G z z2 z2 | D4 z ^D | %65
 EG A,c B,A | E,2 z2 ||[M:3/4] B,2 | (3E,G,B, (3(E^D)E (3GFE | [B,FA]6 | (3E,G,B, (3(E^D)E (3GFE | %71
 [DA]6 | (3G,B,D (3GFG (3BAG | (3DFA (3cAF (3^DcA | (3EBG (3A,cA (3^A,^cG | %75
 (3B,BG (3FCB, (3A,G,F, | (3E,G,B, (3(E^D)E (3GFE | B,6 | (3E,G,B, (3(E^D)E (3GFE | [DA]6 | %80
 (3G,B,D (3GFG (3BAG | (3DFA (3cAF (3^DcA | (3EBG (3A,cA (3B,AF | (3EBG E,2 x2 |] %84
[K:E][M:3/4] [EG]4 [FA]2 | [GB]4 z2 | B,6 | B,4 B, x | ce Be Ad | [Ge]3 z z2 | [A,A]4 [B,FA]2 | %91
 E,4 x2 :: E,2 z2 z2 | [B,F] z z2 z2 | z F=GF^AF | B2 B,3 z | [Bd]B [ce]B [df]B | E,2 z2 z2 | %98
 z/ (D/E/).^E/ F2 [F,=E^A]2 | B,4 x2 | [EG]4 [FA]2 | [GB]4 z2 | B,6 | B,4 B, x | ce Be Ad | %105
 [Ge]3 z z2 | [A,A]4 [B,FA]2 | E,4 x2 :| %108
V:3
 x6 | F4 z2 | x6 | x6 | x6 | A3 c BA | x6 | x6 | x6 | F4 z2 | x6 | x6 | x6 | A3 c BA | x6 | x4 || %16
[M:3/4] x2 | x6 | x6 | x6 | x6 | x6 | x6 | x6 | x6 | x6 | x6 | x6 | x6 | x6 | x6 | x6 | x6 || %33
[M:3/4] x2 | z [EG][FA][GB][Ac][GB] | x3 G FA | z [EG][FA][GB][Ac][G^c] | d3 ^cd x | %38
 G,G[Ac][Bd][ce][Bd] | x6 | G3 ^G A^A | B4 B=A | z [EG][FA][GB][Ac][GB] | x3 G FA | %44
 z [EG][FA][GB][Ac][G^c] | [Ad]3 [G^c] d=c | G,[GB][Ac][Bd][ce][Bd] | x6 | z [EG] z [Ac] z [FA] | %49
 [EG]2 z2 ||[M:3/4] x2 | z [GB] [GB][GB][GB][GB] | z [FA] [FA][FA][FA][FA] | %53
 z [GB] [GB][GB][GB][GB] | z [Fc] [Fc][Fc] [Fc] z | z [GB][GB][GB][GB][GB] | %56
 z [Ac][Ac][Ac] z [Ac] | z [GB] z [Ac] z [G^c] | z [GB] [FA][EG] FA | z [GB] [GB][GB][GB][GB] | %60
 z [FA] [FA][FA][FA][FA] | z [GB] [GB][GB][GB][GB] | z [Fc] [Fc][Fc] [Fc]2 | %63
 z [GB][GB][GB][GB][GB] | z [Ac] [Ac][Ac] [Ac]2 | x6 | GB E2 ||[M:3/4] x2 | x6 | x6 | x6 | x6 | %72
 x6 | x6 | x6 | x6 | x6 | z2 [FA]2 [FA]2 | x6 | x6 | x6 | x6 | x6 | x6 |][K:E][M:3/4] x6 | x6 | %86
 x6 | z B(^AB) x2 | x6 | x6 | x6 | x6 :: (3([Ge]B).B (3[Bg]B.B (3([Ge]B).B | x6 | x6 | x6 | x6 | %97
 x6 | x6 | x6 | x6 | x6 | x6 | z B(^AB) x2 | x6 | x6 | x6 | x6 :| %108
V:4
 x6 | x6 | x6 | x6 | x6 | x6 | x6 | x6 | x6 | x6 | x6 | x6 | x6 | x6 | x6 | x4 ||[M:3/4] x2 | x6 | %18
 x6 | x6 | x6 | x6 | x6 | x6 | x6 | x6 | x6 | x6 | x6 | x6 | x6 | x6 | x6 ||[M:3/4] x2 | x6 | x6 | %36
 x6 | A3 G F2 | x6 | x6 | x6 | x6 | x6 | x6 | x6 | x6 | x6 | x6 | x6 | x4 ||[M:3/4] x2 | x6 | x6 | %53
 x6 | x6 | x6 | x6 | x6 | x6 | x6 | x6 | x6 | x6 | x6 | x6 | x6 | x4 ||[M:3/4] x2 | x6 | x6 | x6 | %71
 x6 | x6 | x6 | x6 | x6 | x6 | x6 | x6 | x6 | x6 | x6 | x6 | x6 |][K:E][M:3/4] x6 | x6 | x6 | x6 | %88
 x6 | x6 | x6 | x6 :: x6 | x6 | x6 | x6 | x6 | x6 | x6 | x6 | x6 | x6 | x6 | x6 | x6 | x6 | x6 | %107
 x6 :| %108

